src/assets/svg/bg/key-facts-bg-1.svg

<svg xmlns="http://www.w3.org/2000/svg" width="1472" height="1591" fill="none" viewBox="0 0 1472 1591"><mask id="a" width="1472" height="1591" x="0" y="0" maskUnits="userSpaceOnUse" style="mask-type:luminance"><path fill="#fff" fill-rule="evenodd" d="M463.489 0 1471.64 1201.46l-463.49 388.92L0 388.914z" clip-rule="evenodd"/></mask><g stroke="#707070" stroke-width=".5" mask="url(#a)"><path d="m-371.939-54.347 752.373 896.644 292.492 30.395 183.956 219.228 202.488 25.53 211.71 252.3"/><path d="M-364.688-76.374 387.701 820.29l292.492 30.395 183.956 219.226 202.471 25.51 211.72 252.32"/><path d="m-357.424-98.382 752.389 896.663 292.505 30.383 183.956 219.226 202.464 25.53 211.72 252.32"/><path d="m-350.154-120.391 752.389 896.662 292.49 30.366 183.957 219.233 202.478 25.54 211.72 252.32"/><path d="m-342.871-142.411 752.374 896.645 292.491 30.395 183.957 219.231 202.479 25.54 211.7 252.3"/><path d="m-335.621-164.437 752.389 896.662L709.26 762.62l183.955 219.23 202.465 25.52 211.72 252.32"/><path d="m-328.355-186.445 752.388 896.662 292.492 30.395 183.956 219.23 202.459 25.523 211.72 252.315"/><path d="m-279.447-158.826 710.748 847.037 292.476 30.376 183.956 219.231 202.487 25.527 211.72 252.325"/><path d="m-274.633-183.759 713.202 849.961 292.477 30.377L915.002 915.81l202.488 25.526 211.72 252.324"/><path d="m-233.531-165.442 679.35 809.618 292.492 30.395 183.956 219.23 202.473 25.511 211.72 252.318"/></g></svg>

<svg width="1472" height="1591" viewBox="0 0 1472 1591" fill="none" xmlns="http://www.w3.org/2000/svg">
<mask id="mask0_0_4621" style="mask-type:luminance" maskUnits="userSpaceOnUse" x="0" y="0" width="1472" height="1591">
<path fill-rule="evenodd" clip-rule="evenodd" d="M463.489 5.76518e-05L1471.64 1201.46L1008.15 1590.38L0 388.914L463.489 5.76518e-05V5.76518e-05Z" fill="white"/>
</mask>
<g mask="url(#mask0_0_4621)">
<path d="M-371.939 -54.3473L380.434 842.297L672.926 872.692L856.882 1091.92L1059.37 1117.45L1271.08 1369.75" stroke="#707070" stroke-width="0.5"/>
<path d="M-364.688 -76.3739L387.701 820.289L680.193 850.684L864.149 1069.91L1066.62 1095.42L1278.34 1347.74" stroke="#707070" stroke-width="0.5"/>
<path d="M-357.424 -98.3817L394.965 798.281L687.47 828.664L871.426 1047.89L1073.89 1073.42L1285.61 1325.74" stroke="#707070" stroke-width="0.5"/>
<path d="M-350.154 -120.391L402.235 776.271L694.725 806.637L878.682 1025.87L1081.16 1051.41L1292.88 1303.73" stroke="#707070" stroke-width="0.5"/>
<path d="M-342.871 -142.411L409.503 754.234L701.994 784.629L885.951 1003.86L1088.43 1029.4L1300.13 1281.7" stroke="#707070" stroke-width="0.5"/>
<path d="M-335.621 -164.437L416.768 732.225L709.26 762.62L893.215 981.85L1095.68 1007.37L1307.4 1259.69" stroke="#707070" stroke-width="0.5"/>
<path d="M-328.355 -186.445L424.033 710.217L716.525 740.612L900.481 959.842L1102.94 985.365L1314.66 1237.68" stroke="#707070" stroke-width="0.5"/>
<path d="M-279.447 -158.826L431.301 688.211L723.777 718.587L907.733 937.818L1110.22 963.345L1321.94 1215.67" stroke="#707070" stroke-width="0.5"/>
<path d="M-274.633 -183.759L438.569 666.202L731.046 696.579L915.002 915.81L1117.49 941.336L1329.21 1193.66" stroke="#707070" stroke-width="0.5"/>
<path d="M-233.531 -165.442L445.819 644.176L738.311 674.571L922.267 893.801L1124.74 919.312L1336.46 1171.63" stroke="#707070" stroke-width="0.5"/>
</g>
</svg>
